X: 15041
T: George White's Favourite
R: reel
M: 4/4
K: Gmajor
|:Bd|eB (3B^AB eBdB|A^GAB GE DE|GB (3B^AB eB ~B2|eBdB A2 Bd|
eB (3B^AB eBdB|A2AB GE DE|GABd gedB|AGAB G2:|
|:gede gaba|(3gbg ga gedB|dega (3bag ag|eaag a2 ga|
bgeg d3e|gede gaba|(3gbg fg egdB|AGAB G2:|

